X:155046711614717
T:11-10-4-5-3-9-11-4-5-12-9-6-6-7-6-5
%%setfont-1 Courier-Bold 8
T:$1K.516f::3:142:158:85:146:86:147:24:90:20:48:125:76:162:1:170::$0
T:$1Perm. No.: 155046711614717$0
M:3/8
L:1/8
Q:1/8=111
%%staves [1 2]
V:1 clef=treble
V:2 clef=bass
K:C
%1
[V:1]|: gce |\
[V:2]|: [E,2C,2]z |\
%2
[V:1] cGe |\
[V:2] [E,2C,2]z |\
%3
[V:1] Bd/B/A/G/ |\
[V:2] G,2z |\
%4
[V:1] ceG |\
[V:2] [G,2E,2]z |\
%5
[V:1] [d^F][^fd][af] |\
[V:2] C,C,C,   |\
%6
[V:1] dd/g/b |\
[V:2] [G,2B,,2]z |\
%7
[V:1] e/c'/b/g/a/^f/ \
[V:2] C,D,D,, \
%8a
[V:1]|1 [g2d2B2G2]z :|2
[V:2]|1 G,,G,/=F,/E,/D,/ :|2
%8b
[V:1] [g2d2B2G2]z |:\
[V:2] G,,B,/G,/^F,/E,/ |:\
%9
[V:1] ^f/a/d'/a/f/a/ |\
[V:2] [A,2C,2][A,C,] |\
%10
[V:1] gb/d'/d |\
[V:2] B,,2z |\
%11
[V:1] ec/e/g/c'/ |\
[V:2] [G,2C,2][E,C,] |\
%12
[V:1] g/e/d/B/G |\
[V:2] G,G,,z |\
%13
[V:1] c'/b/c'/g/e/c/ |\
[V:2] [E,2C,2][G,C,] |\
%14
[V:1] e/d/e/g/c'/g/ |\
[V:2] [G,2C,2][E,C,] |\
%15
[V:1] fdg   |\
[V:2] F,D,G, |\
%16
[V:1] c2z :|]
[V:2] C,G,,C,, :|]
